packages/kaspersky-hexa-ui-icons/src/iconsSVGs/16/BluetoothScan.svg

<svg width="16" height="16" viewBox="0 0 16 16" fill="none" xmlns="http://www.w3.org/2000/svg">
<path fill-rule="evenodd" clip-rule="evenodd" d="M5.02736 2.12577C4.8279 1.9928 4.57145 1.9804 4.36009 2.09351C4.14874 2.20663 4.0168 2.42689 4.0168 2.6666V6.69994L2.39014 5.47994C2.10295 5.26455 1.69553 5.32275 1.48014 5.60994C1.26474 5.89712 1.32295 6.30455 1.61014 6.51994L3.58347 7.99994L1.61014 9.47994C1.32295 9.69533 1.26474 10.1027 1.48014 10.3899C1.69553 10.6771 2.10295 10.7353 2.39014 10.5199L4.0168 9.29994V13.3333C4.0168 13.573 4.14874 13.7932 4.36009 13.9064C4.57145 14.0195 4.8279 14.0071 5.02736 13.8741L9.02736 11.2074C9.20819 11.0869 9.3168 10.8839 9.3168 10.6666C9.3168 10.4493 9.20819 10.2463 9.02736 10.1258L5.83861 7.99994L9.02736 5.8741C9.20819 5.75355 9.3168 5.5506 9.3168 5.33327C9.3168 5.11594 9.20819 4.91299 9.02736 4.79244L5.02736 2.12577ZM7.495 5.33327L5.3168 6.7854V3.88114L7.495 5.33327ZM7.495 10.6666L5.3168 9.21447V12.1187L7.495 10.6666Z" fill="black"/>
<path d="M11.5805 5.16302L11.5833 5.16544C11.5877 5.16936 11.5965 5.17734 11.6092 5.18938C11.6345 5.21348 11.6748 5.25363 11.7253 5.30976C11.8266 5.42226 11.9672 5.59731 12.1094 5.83436C12.3924 6.30591 12.6835 7.02501 12.6835 7.99994C12.6835 8.97487 12.3924 9.69397 12.1094 10.1655C11.9672 10.4026 11.8266 10.5776 11.7253 10.6901C11.6748 10.7462 11.6345 10.7864 11.6092 10.8105C11.5965 10.8225 11.5877 10.8305 11.5833 10.8344L11.5805 10.8369C11.3079 11.0672 11.272 11.4748 11.5008 11.7494C11.7208 12.0133 12.1056 12.0588 12.3801 11.8607C12.4244 11.8287 12.4655 11.7902 12.5057 11.7519C12.5533 11.7065 12.6171 11.6425 12.6916 11.5598C12.8404 11.3945 13.0331 11.1529 13.2242 10.8344C13.6079 10.1948 13.9835 9.24723 13.9835 7.99994C13.9835 6.75265 13.6079 5.80508 13.2242 5.16552C13.0331 4.84701 12.8404 4.60539 12.6916 4.44011C12.6171 4.35736 12.5533 4.29334 12.5057 4.248C12.4819 4.22531 12.4621 4.20725 12.4469 4.19381C12.4453 4.19235 12.3838 4.14188 12.3838 4.14188C12.1092 3.94067 11.7218 3.98533 11.5008 4.25048C11.272 4.52509 11.3079 4.93266 11.5805 5.16302Z" fill="black"/>
<path fill-rule="evenodd" clip-rule="evenodd" d="M9.4593 9.69382C9.26193 9.39776 9.33949 8.99865 9.63175 8.79774L9.63485 8.7954C9.64128 8.79051 9.65455 8.78004 9.67247 8.76412C9.7088 8.73183 9.76089 8.68004 9.81347 8.60994C9.91717 8.47167 10.0168 8.2718 10.0168 7.99994C10.0168 7.72807 9.91717 7.5282 9.81347 7.38994C9.76089 7.31983 9.7088 7.26804 9.67247 7.23575C9.65455 7.21983 9.64128 7.20936 9.63485 7.20447L9.63175 7.20213C9.33949 7.00122 9.26193 6.60211 9.4593 6.30605C9.6512 6.01821 10.0329 5.93279 10.3277 6.10517C10.3313 6.10723 10.418 6.16678 10.4227 6.1704C10.4527 6.19328 10.4916 6.22449 10.5361 6.26412C10.6248 6.34294 10.7394 6.45782 10.8535 6.60994C11.0831 6.91612 11.3168 7.38292 11.3168 7.99994C11.3168 8.61695 11.0831 9.08375 10.8535 9.38994C10.7394 9.54205 10.6248 9.65693 10.5361 9.73575C10.4916 9.77538 10.4527 9.80659 10.4227 9.82947C10.3911 9.85357 10.3586 9.87695 10.3241 9.89683C10.0298 10.0664 9.6504 9.98047 9.4593 9.69382ZM9.63175 8.79774L9.63338 8.79663L9.63093 8.79834L9.63175 8.79774Z" fill="black"/>
</svg>

<svg xmlns="http://www.w3.org/2000/svg" width="16" height="16" fill="none" viewBox="0 0 16 16"><path fill="#000" fill-rule="evenodd" d="M4.36 2.0936a.65.65 0 0 1 .6672.0322l4 2.6667a.65.65 0 0 1 0 1.0817L5.8385 8l3.1887 2.1258a.65.65 0 0 1 0 1.0817l-4 2.6667a.6502.6502 0 0 1-1.0105-.5409V9.3L2.39 10.52a.65.65 0 1 1-.78-1.04L3.5834 8 1.61 6.52a.65.65 0 0 1 .78-1.04L4.0167 6.7V2.6667a.65.65 0 0 1 .3433-.5731m.9567 4.6919 2.1782-1.4522-2.1782-1.4521zm6.2637-1.6224.0028.0024q.0067.006.0258.024c.0253.024.0657.0642.1162.1203.1013.1125.2419.2876.3841.5246.2829.4716.5741 1.1907.5741 2.1656 0 .975-.2912 1.694-.5741 2.1656-.1422.237-.2828.4121-.3841.5246a2.2 2.2 0 0 1-.1162.1204q-.019.018-.0258.0239l-.0028.0024a.65.65 0 0 0 .7995 1.0239c.0444-.032.0855-.0706.1257-.1089a3.5 3.5 0 0 0 .1859-.1921c.1488-.1653.3415-.4069.5326-.7254.3837-.6395.7593-1.5871.7593-2.8344s-.3756-2.1949-.7593-2.8344c-.1911-.3185-.3838-.5601-.5326-.7254a3.5 3.5 0 0 0-.1859-.1921 2 2 0 0 0-.0588-.0542l-.0631-.052a.65.65 0 0 0-.8033 1.0212M9.4592 9.6939a.65.65 0 0 1 .1724-.8961l.0031-.0023a.7.7 0 0 0 .0377-.0313 1.06 1.06 0 0 0 .141-.1542c.1036-.1383.2033-.3381.2033-.61s-.0997-.4717-.2033-.61a1.06 1.06 0 0 0-.141-.1542.7.7 0 0 0-.0377-.0313l-.003-.0023a.65.65 0 0 1 .6959-1.097 8 8 0 0 1 .095.0653c.03.0228.0688.054.1134.0937.0887.0788.2033.1937.3174.3458.2296.3062.4633.773.4633 1.39s-.2337 1.0838-.4633 1.39a2.36 2.36 0 0 1-.3174.3458 2 2 0 0 1-.1134.0937.9.9 0 0 1-.0987.0674.65.65 0 0 1-.8647-.203m-4.1425-.4794 2.1782 1.4522-2.1782 1.4521z"/></svg>
